icons/2_Variations/Lichess bg.var.svg

<svg width="1024" height="1024" fill="none" xmlns="http://www.w3.org/2000/svg"><g clip-path="url(#a)"><path d="M512 1024c282.77 0 512-229.23 512-512S794.77 0 512 0 0 229.23 0 512s229.23 512 512 512Z" fill="#B1B5BD"/><path opacity=".996" d="M766.7 551.8v-.1l-124.6-226 16.2-69.5c0-.2 0-.3-.1-.4-.1-.1-.3-.2-.4-.2-36.9 4.4-67.5 9.4-97.1 31.2-55.6-3.9-105.2 1.5-147.4 15.9-37.6 12.8-69.4 32.9-94.6 59.6-25.2 26.7-43.3 59.2-53.7 96.5-9 32.4-11.6 66.7-7.5 99.1 7.1 52.4 30.5 99.3 67.8 135.7 33.9 33.1 77.5 56.5 126.3 67.8 20.8 4.8 41.6 7.2 62 7.2 23.8 0 47-3.3 68.9-9.8 43-12.8 77.8-37.7 100.7-71.8.1-.2.1-.5-.1-.7-.2-.2-.5-.1-.7 0-75.8 78.4-200 91.9-295.3 32.1-99.7-62.5-137.8-187.1-86.8-283.7 50.8-96.1 140.9-137.4 253.9-116.4.1 0 .2 0 .3-.1 2.4-1.4 4.8-2.8 7.3-4.3 23-13.6 49.1-28.9 71.8-29L616.1 335v.4l133.2 223.2c-2.4 30.2-17.6 45.8-30 53.5-12.2 7.6-24 9.4-26.2 9.7-5.7-14.5-16-29.5-50.6-62.9-8.9-8.6-25.9-20.1-45.6-33.4-55.7-37.7-132.1-89.4-119.3-135.4.1-.3-.1-.5-.3-.6-.3-.1-.5.1-.6.3-7.3 25.5 2.6 53.2 30.2 84.9 23.5 26.9 55.7 51.8 81.6 71.8 14.3 11 26.7 20.6 35 28.4 37.1 34.9 55.8 61.3 60.5 70.5.1.2.3.3.6.3.2-.1 24.9-6.7 47.2-21.5 29.4-19.8 41.6-44.8 34.9-72.4Z" fill="#fff"/></g><defs><clipPath id="a"><path fill="#fff" d="M0 0h1024v1024H0z"/></clipPath></defs></svg>

<svg width="1024" height="1024" viewBox="0 0 1024 1024" fill="none" xmlns="http://www.w3.org/2000/svg">
<g clip-path="url(#clip0_3_146)">
<path d="M512 1024C794.77 1024 1024 794.77 1024 512C1024 229.23 794.77 0 512 0C229.23 0 0 229.23 0 512C0 794.77 229.23 1024 512 1024Z" fill="#B1B5BD"/>
<path opacity="0.9961" d="M766.7 551.8V551.7L642.1 325.7L658.3 256.2C658.3 256 658.3 255.9 658.2 255.8C658.1 255.7 657.9 255.6 657.8 255.6C620.9 260 590.3 265 560.7 286.8C505.1 282.9 455.5 288.3 413.3 302.7C375.7 315.5 343.9 335.6 318.7 362.3C293.5 389 275.4 421.5 265 458.8C256 491.2 253.4 525.5 257.5 557.9C264.6 610.3 288 657.2 325.3 693.6C359.2 726.7 402.8 750.1 451.6 761.4C472.4 766.2 493.2 768.6 513.6 768.6C537.4 768.6 560.6 765.3 582.5 758.8C625.5 746 660.3 721.1 683.2 687C683.3 686.8 683.3 686.5 683.1 686.3C682.9 686.1 682.6 686.2 682.4 686.3C606.6 764.7 482.4 778.2 387.1 718.4C287.4 655.9 249.3 531.3 300.3 434.7C351.1 338.6 441.2 297.3 554.2 318.3C554.3 318.3 554.4 318.3 554.5 318.2C556.9 316.8 559.3 315.4 561.8 313.9C584.8 300.3 610.9 285 633.6 284.9L616.1 335V335.4L749.3 558.6C746.9 588.8 731.7 604.4 719.3 612.1C707.1 619.7 695.3 621.5 693.1 621.8C687.4 607.3 677.1 592.3 642.5 558.9C633.6 550.3 616.6 538.8 596.9 525.5C541.2 487.8 464.8 436.1 477.6 390.1C477.7 389.8 477.5 389.6 477.3 389.5C477 389.4 476.8 389.6 476.7 389.8C469.4 415.3 479.3 443 506.9 474.7C530.4 501.6 562.6 526.5 588.5 546.5C602.8 557.5 615.2 567.1 623.5 574.9C660.6 609.8 679.3 636.2 684 645.4C684.1 645.6 684.3 645.7 684.6 645.7C684.8 645.6 709.5 639 731.8 624.2C761.2 604.4 773.4 579.4 766.7 551.8Z" fill="white"/>
</g>
<defs>
<clipPath id="clip0_3_146">
<rect width="1024" height="1024" fill="white"/>
</clipPath>
</defs>
</svg>
